assets/post/images/tree4.svg

<svg xmlns="http://www.w3.org/2000/svg" width="3312" height="1062" overflow="hidden"><defs><clipPath id="a"><path d="M139 1311h3312v1062H139z"/></clipPath></defs><g clip-path="url(#a)" transform="translate(-139 -1311)"><path fill="#d74514" fill-rule="evenodd" stroke="#d74514" stroke-miterlimit="8" stroke-width="9.167" d="M1523.5 1394.5c0-43.63 35.15-79 78.5-79s78.5 35.37 78.5 79-35.15 79-78.5 79-78.5-35.37-78.5-79Z"/><text fill="#fff" font-family="Courier New,Courier New_MSFontService,sans-serif" font-size="83" font-weight="700" transform="translate(1576.86 1417)">x</text><path fill="#fdefe8" fill-rule="evenodd" stroke="#d74514" stroke-miterlimit="8" stroke-width="9.167" d="M1273.5 1644.5c0-43.63 35.15-79 78.5-79s78.5 35.37 78.5 79-35.15 79-78.5 79-78.5-35.37-78.5-79Z"/><text fill="#d74514" font-family="Courier New,Courier New_MSFontService,sans-serif" font-size="83" font-weight="700" transform="translate(1326.82 1667)">A</text><path fill="#fdefe8" fill-rule="evenodd" stroke="#d74514" stroke-miterlimit="8" stroke-width="9.167" d="M1630.5 1947.5c0-43.63 35.37-79 79-79s79 35.37 79 79-35.37 79-79 79-79-35.37-79-79Z"/><text fill="#d74514" font-family="Courier New,Courier New_MSFontService,sans-serif" font-size="83" font-weight="700" transform="translate(1684.62 1970)">C</text><path fill="#d74514" fill-rule="evenodd" stroke="#d74514" stroke-miterlimit="8" stroke-width="9.167" d="M1787.5 1644.5c0-43.63 35.37-79 79-79s79 35.37 79 79-35.37 79-79 79-79-35.37-79-79Z"/><text fill="#fff" font-family="Courier New,Courier New_MSFontService,sans-serif" font-size="83" font-weight="700" transform="translate(1841.4 1667)">z</text><path fill="#d74514" fill-rule="evenodd" stroke="#d74514" stroke-miterlimit="8" stroke-width="9.167" d="M1923.5 1947.5c0-43.63 35.37-79 79-79s79 35.37 79 79-35.37 79-79 79-79-35.37-79-79Z"/><text fill="#fff" font-family="Courier New,Courier New_MSFontService,sans-serif" font-size="83" font-weight="700" transform="translate(1977.16 1970)">y</text><path fill="#fdefe8" fill-rule="evenodd" stroke="#d74514" stroke-miterlimit="8" stroke-width="9.167" d="M1819.5 2273.5c0-43.63 35.37-79 79-79s79 35.37 79 79-35.37 79-79 79-79-35.37-79-79Z"/><text fill="#d74514" font-family="Courier New,Courier New_MSFontService,sans-serif" font-size="83" font-weight="700" transform="translate(1873.05 2297)">D</text><path fill="#fdefe8" fill-rule="evenodd" stroke="#d74514" stroke-miterlimit="8" stroke-width="9.167" d="M2010.5 2273.5c0-43.63 35.37-79 79-79s79 35.37 79 79-35.37 79-79 79-79-35.37-79-79Z"/><text fill="#d74514" font-family="Courier New,Courier New_MSFontService,sans-serif" font-size="83" font-weight="700" transform="translate(2064.04 2297)">B</text><path fill="none" stroke="#000" stroke-miterlimit="8" stroke-width="9.167" d="m1407.5 1588.89 138.445-138.393m264.495 138.393L1657.5 1450.5m52 418.38 102.026-168.381m190.884 168.381-78.91-168.38m-25 494.49 47.962-191.494m142.468 191.494-31.43-191.49"/><path fill="#d74514" fill-rule="evenodd" stroke="#d74514" stroke-miterlimit="8" stroke-width="9.167" d="M2885.5 1394.5c0-43.63 35.37-79 79-79s79 35.37 79 79-35.37 79-79 79-79-35.37-79-79Z"/><text fill="#fff" font-family="Courier New,Courier New_MSFontService,sans-serif" font-size="83" font-weight="700" transform="translate(2939.53 1417)">z</text><path fill="#d74514" fill-rule="evenodd" stroke="#d74514" stroke-miterlimit="8" stroke-width="9.167" d="M2635.5 1644.5c0-43.63 35.37-79 79-79s79 35.37 79 79-35.37 79-79 79-79-35.37-79-79Z"/><text fill="#fff" font-family="Courier New,Courier New_MSFontService,sans-serif" font-size="83" font-weight="700" transform="translate(2689.48 1667)">x</text><path fill="#fdefe8" fill-rule="evenodd" stroke="#d74514" stroke-miterlimit="8" stroke-width="9.167" d="M2477.5 1947.5c0-43.63 35.37-79 79-79s79 35.37 79 79-35.37 79-79 79-79-35.37-79-79Z"/><text fill="#d74514" font-family="Courier New,Courier New_MSFontService,sans-serif" font-size="83" font-weight="700" transform="translate(2531.66 1970)">A</text><path fill="#d74514" fill-rule="evenodd" stroke="#d74514" stroke-miterlimit="8" stroke-width="9.167" d="M3150.5 1644.5c0-43.63 35.37-79 79-79s79 35.37 79 79-35.37 79-79 79-79-35.37-79-79Z"/><text fill="#fff" font-family="Courier New,Courier New_MSFontService,sans-serif" font-size="83" font-weight="700" transform="translate(3204.07 1667)">y</text><path fill="#fdefe8" fill-rule="evenodd" stroke="#d74514" stroke-miterlimit="8" stroke-width="9.167" d="M2770.5 1947.5c0-43.63 35.37-79 79-79s79 35.37 79 79-35.37 79-79 79-79-35.37-79-79Z"/><text fill="#d74514" font-family="Courier New,Courier New_MSFontService,sans-serif" font-size="83" font-weight="700" transform="translate(2824.2 1970)">C</text><path fill="none" stroke="#000" stroke-miterlimit="8" stroke-width="9.167" d="m2770.5 1588.89 138.445-138.393m264.495 138.393L3020.5 1450.5m-464 418.38 102.026-168.381m190.884 168.381-78.91-168.38"/><path fill="#fdefe8" fill-rule="evenodd" stroke="#d74514" stroke-miterlimit="8" stroke-width="9.167" d="M2996.5 1946.5c0-43.63 35.37-79 79-79s79 35.37 79 79-35.37 79-79 79-79-35.37-79-79Z"/><text fill="#d74514" font-family="Courier New,Courier New_MSFontService,sans-serif" font-size="83" font-weight="700" transform="translate(3050.2 1969)">D</text><path fill="#fdefe8" fill-rule="evenodd" stroke="#d74514" stroke-miterlimit="8" stroke-width="9.167" d="M3288.5 1946.5c0-43.63 35.37-79 79-79s79 35.37 79 79-35.37 79-79 79-79-35.37-79-79Z"/><text fill="#d74514" font-family="Courier New,Courier New_MSFontService,sans-serif" font-size="83" font-weight="700" transform="translate(3342.74 1969)">B</text><path fill="none" stroke="#000" stroke-miterlimit="8" stroke-width="9.167" d="m3075.5 1867.88 102.026-168.381m189.884 168.381-78.91-168.38"/><path fill="#d74514" fill-rule="evenodd" d="M2276 1755.5h90V1699l90 113-90 113v-56.5h-90Z"/><path fill="#d74514" fill-rule="evenodd" stroke="#d74514" stroke-miterlimit="8" stroke-width="9.167" d="M393.5 1394.5c0-43.63 35.37-79 79-79s79 35.37 79 79-35.37 79-79 79-79-35.37-79-79Z"/><text fill="#fff" font-family="Courier New,Courier New_MSFontService,sans-serif" font-size="83" font-weight="700" transform="translate(446.976 1417)">x</text><path fill="#fdefe8" fill-rule="evenodd" stroke="#d74514" stroke-miterlimit="8" stroke-width="9.167" d="M143.5 1644.5c0-43.63 35.146-79 78.5-79s78.5 35.37 78.5 79-35.146 79-78.5 79-78.5-35.37-78.5-79Z"/><text fill="#d74514" font-family="Courier New,Courier New_MSFontService,sans-serif" font-size="83" font-weight="700" transform="translate(196.931 1667)">A</text><path fill="#d74514" fill-rule="evenodd" stroke="#d74514" stroke-miterlimit="8" stroke-width="9.167" d="M500.5 1947.5c0-43.63 35.37-79 79-79s79 35.37 79 79-35.369 79-79 79-79-35.37-79-79Z"/><text fill="#fff" font-family="Courier New,Courier New_MSFontService,sans-serif" font-size="83" font-weight="700" transform="translate(554.734 1970)">z</text><path fill="#d74514" fill-rule="evenodd" stroke="#d74514" stroke-miterlimit="8" stroke-width="9.167" d="M657.5 1644.5c0-43.63 35.37-79 79-79s79 35.37 79 79-35.37 79-79 79-79-35.37-79-79Z"/><text fill="#fff" font-family="Courier New,Courier New_MSFontService,sans-serif" font-size="83" font-weight="700" transform="translate(711.514 1667)">y</text><path fill="#fdefe8" fill-rule="evenodd" stroke="#d74514" stroke-miterlimit="8" stroke-width="9.167" d="M793.5 1947.5c0-43.63 35.369-79 79-79s79 35.37 79 79-35.37 79-79 79-79-35.37-79-79Z"/><text fill="#d74514" font-family="Courier New,Courier New_MSFontService,sans-serif" font-size="83" font-weight="700" transform="translate(847.273 1970)">B</text><path fill="#fdefe8" fill-rule="evenodd" stroke="#d74514" stroke-miterlimit="8" stroke-width="9.167" d="M399.5 2273.5c0-43.63 35.146-79 78.5-79s78.5 35.37 78.5 79-35.146 79-78.5 79-78.5-35.37-78.5-79Z"/><text fill="#d74514" font-family="Courier New,Courier New_MSFontService,sans-serif" font-size="83" font-weight="700" transform="translate(452.923 2297)">C</text><path fill="#fdefe8" fill-rule="evenodd" stroke="#d74514" stroke-miterlimit="8" stroke-width="9.167" d="M590.5 2273.5c0-43.63 35.146-79 78.5-79s78.5 35.37 78.5 79-35.146 79-78.5 79-78.5-35.37-78.5-79Z"/><text fill="#d74514" font-family="Courier New,Courier New_MSFontService,sans-serif" font-size="83" font-weight="700" transform="translate(643.911 2297)">D</text><path fill="none" stroke="#000" stroke-miterlimit="8" stroke-width="9.167" d="m277.5 1588.89 138.445-138.393m264.493 138.393L527.5 1450.5m52 418.38 102.026-168.381m190.887 168.381L793.5 1700.5m-315 494.49 47.962-191.494m142.464 191.494L637.5 2003.5"/><path fill="#d74514" fill-rule="evenodd" d="M1076 1776.5h90V1720l90 113-90 113v-56.5h-90Z"/></g></svg>

<svg width="3312" height="1062" xmlns="http://www.w3.org/2000/svg" xmlns:xlink="http://www.w3.org/1999/xlink" overflow="hidden"><defs><clipPath id="clip0"><rect x="139" y="1311" width="3312" height="1062"/></clipPath></defs><g clip-path="url(#clip0)" transform="translate(-139 -1311)"><path d="M1523.5 1394.5C1523.5 1350.87 1558.65 1315.5 1602 1315.5 1645.35 1315.5 1680.5 1350.87 1680.5 1394.5 1680.5 1438.13 1645.35 1473.5 1602 1473.5 1558.65 1473.5 1523.5 1438.13 1523.5 1394.5Z" stroke="#D74514" stroke-width="9.16667" stroke-miterlimit="8" fill="#D74514" fill-rule="evenodd"/><text fill="#FFFFFF" font-family="Courier New,Courier New_MSFontService,sans-serif" font-weight="700" font-size="83" transform="matrix(1 0 0 1 1576.86 1417)">x</text><path d="M1273.5 1644.5C1273.5 1600.87 1308.65 1565.5 1352 1565.5 1395.35 1565.5 1430.5 1600.87 1430.5 1644.5 1430.5 1688.13 1395.35 1723.5 1352 1723.5 1308.65 1723.5 1273.5 1688.13 1273.5 1644.5Z" stroke="#D74514" stroke-width="9.16667" stroke-miterlimit="8" fill="#FDEFE8" fill-rule="evenodd"/><text fill="#D74514" font-family="Courier New,Courier New_MSFontService,sans-serif" font-weight="700" font-size="83" transform="matrix(1 0 0 1 1326.82 1667)">A</text><path d="M1630.5 1947.5C1630.5 1903.87 1665.87 1868.5 1709.5 1868.5 1753.13 1868.5 1788.5 1903.87 1788.5 1947.5 1788.5 1991.13 1753.13 2026.5 1709.5 2026.5 1665.87 2026.5 1630.5 1991.13 1630.5 1947.5Z" stroke="#D74514" stroke-width="9.16667" stroke-miterlimit="8" fill="#FDEFE8" fill-rule="evenodd"/><text fill="#D74514" font-family="Courier New,Courier New_MSFontService,sans-serif" font-weight="700" font-size="83" transform="matrix(1 0 0 1 1684.62 1970)">C</text><path d="M1787.5 1644.5C1787.5 1600.87 1822.87 1565.5 1866.5 1565.5 1910.13 1565.5 1945.5 1600.87 1945.5 1644.5 1945.5 1688.13 1910.13 1723.5 1866.5 1723.5 1822.87 1723.5 1787.5 1688.13 1787.5 1644.5Z" stroke="#D74514" stroke-width="9.16667" stroke-miterlimit="8" fill="#D74514" fill-rule="evenodd"/><text fill="#FFFFFF" font-family="Courier New,Courier New_MSFontService,sans-serif" font-weight="700" font-size="83" transform="matrix(1 0 0 1 1841.4 1667)">z</text><path d="M1923.5 1947.5C1923.5 1903.87 1958.87 1868.5 2002.5 1868.5 2046.13 1868.5 2081.5 1903.87 2081.5 1947.5 2081.5 1991.13 2046.13 2026.5 2002.5 2026.5 1958.87 2026.5 1923.5 1991.13 1923.5 1947.5Z" stroke="#D74514" stroke-width="9.16667" stroke-miterlimit="8" fill="#D74514" fill-rule="evenodd"/><text fill="#FFFFFF" font-family="Courier New,Courier New_MSFontService,sans-serif" font-weight="700" font-size="83" transform="matrix(1 0 0 1 1977.16 1970)">y</text><path d="M1819.5 2273.5C1819.5 2229.87 1854.87 2194.5 1898.5 2194.5 1942.13 2194.5 1977.5 2229.87 1977.5 2273.5 1977.5 2317.13 1942.13 2352.5 1898.5 2352.5 1854.87 2352.5 1819.5 2317.13 1819.5 2273.5Z" stroke="#D74514" stroke-width="9.16667" stroke-miterlimit="8" fill="#FDEFE8" fill-rule="evenodd"/><text fill="#D74514" font-family="Courier New,Courier New_MSFontService,sans-serif" font-weight="700" font-size="83" transform="matrix(1 0 0 1 1873.05 2297)">D</text><path d="M2010.5 2273.5C2010.5 2229.87 2045.87 2194.5 2089.5 2194.5 2133.13 2194.5 2168.5 2229.87 2168.5 2273.5 2168.5 2317.13 2133.13 2352.5 2089.5 2352.5 2045.87 2352.5 2010.5 2317.13 2010.5 2273.5Z" stroke="#D74514" stroke-width="9.16667" stroke-miterlimit="8" fill="#FDEFE8" fill-rule="evenodd"/><text fill="#D74514" font-family="Courier New,Courier New_MSFontService,sans-serif" font-weight="700" font-size="83" transform="matrix(1 0 0 1 2064.04 2297)">B</text><path d="M0 0 138.445 138.393" stroke="#000000" stroke-width="9.16667" stroke-miterlimit="8" fill="none" fill-rule="evenodd" transform="matrix(1 0 0 -1 1407.5 1588.89)"/><path d="M1810.44 1588.89 1657.5 1450.5" stroke="#000000" stroke-width="9.16667" stroke-miterlimit="8" fill="none" fill-rule="evenodd"/><path d="M0 0 102.026 168.381" stroke="#000000" stroke-width="9.16667" stroke-miterlimit="8" fill="none" fill-rule="evenodd" transform="matrix(1 0 0 -1 1709.5 1868.88)"/><path d="M2002.41 1868.88 1923.5 1700.5" stroke="#000000" stroke-width="9.16667" stroke-miterlimit="8" fill="none" fill-rule="evenodd"/><path d="M0 0 47.9619 191.494" stroke="#000000" stroke-width="9.16667" stroke-miterlimit="8" fill="none" fill-rule="evenodd" transform="matrix(1 0 0 -1 1898.5 2194.99)"/><path d="M2088.93 2194.99 2057.5 2003.5" stroke="#000000" stroke-width="9.16667" stroke-miterlimit="8" fill="none" fill-rule="evenodd"/><path d="M2885.5 1394.5C2885.5 1350.87 2920.87 1315.5 2964.5 1315.5 3008.13 1315.5 3043.5 1350.87 3043.5 1394.5 3043.5 1438.13 3008.13 1473.5 2964.5 1473.5 2920.87 1473.5 2885.5 1438.13 2885.5 1394.5Z" stroke="#D74514" stroke-width="9.16667" stroke-miterlimit="8" fill="#D74514" fill-rule="evenodd"/><text fill="#FFFFFF" font-family="Courier New,Courier New_MSFontService,sans-serif" font-weight="700" font-size="83" transform="matrix(1 0 0 1 2939.53 1417)">z</text><path d="M2635.5 1644.5C2635.5 1600.87 2670.87 1565.5 2714.5 1565.5 2758.13 1565.5 2793.5 1600.87 2793.5 1644.5 2793.5 1688.13 2758.13 1723.5 2714.5 1723.5 2670.87 1723.5 2635.5 1688.13 2635.5 1644.5Z" stroke="#D74514" stroke-width="9.16667" stroke-miterlimit="8" fill="#D74514" fill-rule="evenodd"/><text fill="#FFFFFF" font-family="Courier New,Courier New_MSFontService,sans-serif" font-weight="700" font-size="83" transform="matrix(1 0 0 1 2689.48 1667)">x</text><path d="M2477.5 1947.5C2477.5 1903.87 2512.87 1868.5 2556.5 1868.5 2600.13 1868.5 2635.5 1903.87 2635.5 1947.5 2635.5 1991.13 2600.13 2026.5 2556.5 2026.5 2512.87 2026.5 2477.5 1991.13 2477.5 1947.5Z" stroke="#D74514" stroke-width="9.16667" stroke-miterlimit="8" fill="#FDEFE8" fill-rule="evenodd"/><text fill="#D74514" font-family="Courier New,Courier New_MSFontService,sans-serif" font-weight="700" font-size="83" transform="matrix(1 0 0 1 2531.66 1970)">A</text><path d="M3150.5 1644.5C3150.5 1600.87 3185.87 1565.5 3229.5 1565.5 3273.13 1565.5 3308.5 1600.87 3308.5 1644.5 3308.5 1688.13 3273.13 1723.5 3229.5 1723.5 3185.87 1723.5 3150.5 1688.13 3150.5 1644.5Z" stroke="#D74514" stroke-width="9.16667" stroke-miterlimit="8" fill="#D74514" fill-rule="evenodd"/><text fill="#FFFFFF" font-family="Courier New,Courier New_MSFontService,sans-serif" font-weight="700" font-size="83" transform="matrix(1 0 0 1 3204.07 1667)">y</text><path d="M2770.5 1947.5C2770.5 1903.87 2805.87 1868.5 2849.5 1868.5 2893.13 1868.5 2928.5 1903.87 2928.5 1947.5 2928.5 1991.13 2893.13 2026.5 2849.5 2026.5 2805.87 2026.5 2770.5 1991.13 2770.5 1947.5Z" stroke="#D74514" stroke-width="9.16667" stroke-miterlimit="8" fill="#FDEFE8" fill-rule="evenodd"/><text fill="#D74514" font-family="Courier New,Courier New_MSFontService,sans-serif" font-weight="700" font-size="83" transform="matrix(1 0 0 1 2824.2 1970)">C</text><path d="M0 0 138.445 138.393" stroke="#000000" stroke-width="9.16667" stroke-miterlimit="8" fill="none" fill-rule="evenodd" transform="matrix(1 0 0 -1 2770.5 1588.89)"/><path d="M3173.44 1588.89 3020.5 1450.5" stroke="#000000" stroke-width="9.16667" stroke-miterlimit="8" fill="none" fill-rule="evenodd"/><path d="M0 0 102.026 168.381" stroke="#000000" stroke-width="9.16667" stroke-miterlimit="8" fill="none" fill-rule="evenodd" transform="matrix(1 0 0 -1 2556.5 1868.88)"/><path d="M2849.41 1868.88 2770.5 1700.5" stroke="#000000" stroke-width="9.16667" stroke-miterlimit="8" fill="none" fill-rule="evenodd"/><path d="M2996.5 1946.5C2996.5 1902.87 3031.87 1867.5 3075.5 1867.5 3119.13 1867.5 3154.5 1902.87 3154.5 1946.5 3154.5 1990.13 3119.13 2025.5 3075.5 2025.5 3031.87 2025.5 2996.5 1990.13 2996.5 1946.5Z" stroke="#D74514" stroke-width="9.16667" stroke-miterlimit="8" fill="#FDEFE8" fill-rule="evenodd"/><text fill="#D74514" font-family="Courier New,Courier New_MSFontService,sans-serif" font-weight="700" font-size="83" transform="matrix(1 0 0 1 3050.2 1969)">D</text><path d="M3288.5 1946.5C3288.5 1902.87 3323.87 1867.5 3367.5 1867.5 3411.13 1867.5 3446.5 1902.87 3446.5 1946.5 3446.5 1990.13 3411.13 2025.5 3367.5 2025.5 3323.87 2025.5 3288.5 1990.13 3288.5 1946.5Z" stroke="#D74514" stroke-width="9.16667" stroke-miterlimit="8" fill="#FDEFE8" fill-rule="evenodd"/><text fill="#D74514" font-family="Courier New,Courier New_MSFontService,sans-serif" font-weight="700" font-size="83" transform="matrix(1 0 0 1 3342.74 1969)">B</text><path d="M0 0 102.026 168.381" stroke="#000000" stroke-width="9.16667" stroke-miterlimit="8" fill="none" fill-rule="evenodd" transform="matrix(1 0 0 -1 3075.5 1867.88)"/><path d="M3367.41 1867.88 3288.5 1699.5" stroke="#000000" stroke-width="9.16667" stroke-miterlimit="8" fill="none" fill-rule="evenodd"/><path d="M2276 1755.5 2366 1755.5 2366 1699 2456 1812 2366 1925 2366 1868.5 2276 1868.5Z" fill="#D74514" fill-rule="evenodd"/><path d="M393.5 1394.5C393.5 1350.87 428.87 1315.5 472.5 1315.5 516.13 1315.5 551.5 1350.87 551.5 1394.5 551.5 1438.13 516.13 1473.5 472.5 1473.5 428.87 1473.5 393.5 1438.13 393.5 1394.5Z" stroke="#D74514" stroke-width="9.16667" stroke-miterlimit="8" fill="#D74514" fill-rule="evenodd"/><text fill="#FFFFFF" font-family="Courier New,Courier New_MSFontService,sans-serif" font-weight="700" font-size="83" transform="matrix(1 0 0 1 446.976 1417)">x</text><path d="M143.5 1644.5C143.5 1600.87 178.646 1565.5 222 1565.5 265.354 1565.5 300.5 1600.87 300.5 1644.5 300.5 1688.13 265.354 1723.5 222 1723.5 178.646 1723.5 143.5 1688.13 143.5 1644.5Z" stroke="#D74514" stroke-width="9.16667" stroke-miterlimit="8" fill="#FDEFE8" fill-rule="evenodd"/><text fill="#D74514" font-family="Courier New,Courier New_MSFontService,sans-serif" font-weight="700" font-size="83" transform="matrix(1 0 0 1 196.931 1667)">A</text><path d="M500.5 1947.5C500.5 1903.87 535.87 1868.5 579.5 1868.5 623.131 1868.5 658.5 1903.87 658.5 1947.5 658.5 1991.13 623.131 2026.5 579.5 2026.5 535.87 2026.5 500.5 1991.13 500.5 1947.5Z" stroke="#D74514" stroke-width="9.16667" stroke-miterlimit="8" fill="#D74514" fill-rule="evenodd"/><text fill="#FFFFFF" font-family="Courier New,Courier New_MSFontService,sans-serif" font-weight="700" font-size="83" transform="matrix(1 0 0 1 554.734 1970)">z</text><path d="M657.5 1644.5C657.5 1600.87 692.87 1565.5 736.5 1565.5 780.13 1565.5 815.5 1600.87 815.5 1644.5 815.5 1688.13 780.13 1723.5 736.5 1723.5 692.87 1723.5 657.5 1688.13 657.5 1644.5Z" stroke="#D74514" stroke-width="9.16667" stroke-miterlimit="8" fill="#D74514" fill-rule="evenodd"/><text fill="#FFFFFF" font-family="Courier New,Courier New_MSFontService,sans-serif" font-weight="700" font-size="83" transform="matrix(1 0 0 1 711.514 1667)">y</text><path d="M793.5 1947.5C793.5 1903.87 828.869 1868.5 872.5 1868.5 916.13 1868.5 951.5 1903.87 951.5 1947.5 951.5 1991.13 916.13 2026.5 872.5 2026.5 828.869 2026.5 793.5 1991.13 793.5 1947.5Z" stroke="#D74514" stroke-width="9.16667" stroke-miterlimit="8" fill="#FDEFE8" fill-rule="evenodd"/><text fill="#D74514" font-family="Courier New,Courier New_MSFontService,sans-serif" font-weight="700" font-size="83" transform="matrix(1 0 0 1 847.273 1970)">B</text><path d="M399.5 2273.5C399.5 2229.87 434.646 2194.5 478 2194.5 521.354 2194.5 556.5 2229.87 556.5 2273.5 556.5 2317.13 521.354 2352.5 478 2352.5 434.646 2352.5 399.5 2317.13 399.5 2273.5Z" stroke="#D74514" stroke-width="9.16667" stroke-miterlimit="8" fill="#FDEFE8" fill-rule="evenodd"/><text fill="#D74514" font-family="Courier New,Courier New_MSFontService,sans-serif" font-weight="700" font-size="83" transform="matrix(1 0 0 1 452.923 2297)">C</text><path d="M590.5 2273.5C590.5 2229.87 625.646 2194.5 669 2194.5 712.354 2194.5 747.5 2229.87 747.5 2273.5 747.5 2317.13 712.354 2352.5 669 2352.5 625.646 2352.5 590.5 2317.13 590.5 2273.5Z" stroke="#D74514" stroke-width="9.16667" stroke-miterlimit="8" fill="#FDEFE8" fill-rule="evenodd"/><text fill="#D74514" font-family="Courier New,Courier New_MSFontService,sans-serif" font-weight="700" font-size="83" transform="matrix(1 0 0 1 643.911 2297)">D</text><path d="M0 0 138.445 138.393" stroke="#000000" stroke-width="9.16667" stroke-miterlimit="8" fill="none" fill-rule="evenodd" transform="matrix(1 0 0 -1 277.5 1588.89)"/><path d="M680.438 1588.89 527.5 1450.5" stroke="#000000" stroke-width="9.16667" stroke-miterlimit="8" fill="none" fill-rule="evenodd"/><path d="M0 0 102.026 168.381" stroke="#000000" stroke-width="9.16667" stroke-miterlimit="8" fill="none" fill-rule="evenodd" transform="matrix(1 0 0 -1 579.5 1868.88)"/><path d="M872.413 1868.88 793.5 1700.5" stroke="#000000" stroke-width="9.16667" stroke-miterlimit="8" fill="none" fill-rule="evenodd"/><path d="M0 0 47.9619 191.494" stroke="#000000" stroke-width="9.16667" stroke-miterlimit="8" fill="none" fill-rule="evenodd" transform="matrix(1 0 0 -1 478.5 2194.99)"/><path d="M668.926 2194.99 637.5 2003.5" stroke="#000000" stroke-width="9.16667" stroke-miterlimit="8" fill="none" fill-rule="evenodd"/><path d="M1076 1776.5 1166 1776.5 1166 1720 1256 1833 1166 1946 1166 1889.5 1076 1889.5Z" fill="#D74514" fill-rule="evenodd"/></g></svg>
